X: 170
T:Tommy Gunn's
M:C|
L:1/8
R:reel
D:Sen Smyth: The Blue Fiddle
Z:Devin McCabe
K:G
DF | G2BG AGBG | G2BG GEDF | GFGB A^GAB | BAGE EDDF |
!G2BG AGBG | G2BG GEDF | GFGB A^GAB | BAGE EDD^c |:
!~d3 B-~B2 AB | d^cdB- ~B2AB | ~d3 B-~B2cB | BAGE EDD^c ::
!dgbg agbg | dgbg ageg | gfge d^cdB |1 BAGE EDD^c :|2 BAGE EDDg |:
!edBg edBg | edBA G~E3 | B,EGB edBA | GFGE EDDg |
!edBg edBg | edBA G~E3 | dA (3B^cd edg2 | GFGE EDDF :|
